<?xml version='1.0' encoding='UTF-8'?>
<map version="1.9" tiledversion="1.9.2" orientation="isometric" renderorder="right-down" width="4" height="24" tilewidth="128" tileheight="64" infinite="0" nextlayerid="8" nextobjectid="8">
 <tileset firstgid="1" source="../tilesets/village_interiors.tsx" />
 <tileset firstgid="337" source="../tilesets/floors.tsx" />
 <tileset firstgid="346" source="../tilesets/walls.tsx" />
 <tileset firstgid="354" source="../tilesets/windows.tsx" />
 <tileset firstgid="365" source="../tilesets/doors.tsx" />
 <layer id="1" name="Floor" width="4" height="24">
  <data encoding="csv">
339,339,339,339,
339,339,339,339,
339,339,339,339,
339,339,339,339,
339,339,339,339,
339,339,339,339,
339,339,339,339,
339,339,339,339,
339,339,339,339,
339,339,339,339,
339,339,339,339,
339,339,339,339,
339,339,339,339,
339,339,339,339,
339,339,339,339,
339,339,339,339,
339,339,339,339,
339,339,339,339,
339,339,339,339,
339,339,339,339,
339,339,339,339,
339,339,339,339,
339,339,339,339,
0,0,0,0
</data>
 </layer>
 <layer id="2" name="Carpet" width="4" height="24">
  <data encoding="csv">
0,0,0,0,
0,0,0,0,
0,0,0,0,
0,0,0,0,
0,147,0,0,
0,0,0,0,
0,0,0,0,
0,0,0,0,
0,0,0,0,
0,147,0,0,
0,0,0,0,
0,0,0,0,
0,0,0,0,
0,0,0,0,
0,147,0,0,
0,0,0,0,
0,0,0,0,
0,0,0,0,
0,0,0,0,
0,147,0,0,
0,0,0,0,
0,0,0,0,
0,0,0,0,
0,0,0,0
</data>
 </layer>
 <layer id="3" name="Walls" width="4" height="24">
  <data encoding="csv">
348,348,348,348,
348,0,0,0,
348,0,0,0,
348,0,0,0,
348,0,0,0,
348,0,0,0,
348,0,0,0,
348,0,0,0,
348,0,0,0,
348,0,0,0,
348,0,0,0,
348,0,0,0,
348,0,0,0,
348,0,0,0,
348,0,0,0,
348,0,0,0,
348,0,0,0,
348,0,0,0,
348,0,0,0,
348,0,0,0,
348,0,0,0,
348,0,0,0,
348,0,0,0,
0,0,0,0
</data>
 </layer>
 <layer id="4" name="Furniture" width="4" height="24">
  <data encoding="csv">
0,0,0,0,
0,0,0,0,
0,0,0,0,
0,0,0,0,
0,253,0,0,
0,0,0,0,
0,191,0,0,
0,0,0,0,
0,0,0,0,
0,253,0,0,
0,0,0,0,
0,0,0,0,
0,0,0,0,
0,0,0,0,
0,253,0,0,
0,0,0,0,
0,0,0,0,
0,0,0,0,
0,0,0,0,
0,253,0,0,
0,0,0,0,
0,0,0,0,
0,0,0,0,
0,0,2147483901,0
</data>
 </layer>
 <layer id="5" name="Props" width="4" height="24">
  <data encoding="csv">
0,0,0,0,
0,0,0,0,
0,0,0,0,
0,0,0,0,
0,0,0,0,
0,0,0,0,
0,0,0,0,
0,0,0,0,
0,0,0,0,
0,0,0,0,
0,0,0,0,
0,0,0,0,
0,0,0,0,
0,0,0,0,
0,0,0,0,
0,0,0,0,
0,0,0,0,
0,0,0,0,
0,0,0,0,
0,0,0,0,
0,0,0,0,
0,0,0,0,
0,0,0,0,
0,0,0,0
</data>
 </layer>
 <objectgroup id="6" name="Decoration" />
 <objectgroup id="7" name="Objects">
  <object id="1" name="sleeper" type="door" x="64" y="256" width="64" height="64">
   <properties>
    <property name="locked" type="bool" value="true" />
   </properties>
  </object>
  <object id="2" name="chanter" type="door" x="64" y="576" width="64" height="64">
   <properties>
    <property name="locked" type="bool" value="true" />
   </properties>
  </object>
  <object id="3" name="bedroom" type="door" x="64" y="896" width="64" height="64" />
  <object id="4" name="bedroom" type="spawn" x="160.0" y="928.0">
   <point />
  </object>
  <object id="5" name="scribe" type="door" x="64" y="1216" width="64" height="64">
   <properties>
    <property name="locked" type="bool" value="true" />
   </properties>
  </object>
  <object id="6" name="library" type="door" x="128" y="1408" width="64" height="64" />
  <object id="7" name="library" type="spawn" x="160.0" y="1376.0">
   <point />
  </object>
 </objectgroup>
</map>