<?xml version='1.0' encoding='UTF-8'?>
<map version="1.9" tiledversion="1.9.2" orientation="isometric" renderorder="right-down" width="13" height="16" tilewidth="128" tileheight="64" infinite="0" nextlayerid="8" nextobjectid="10">
 <tileset firstgid="1" source="../tilesets/village_interiors.tsx" />
 <tileset firstgid="337" source="../tilesets/floors.tsx" />
 <tileset firstgid="346" source="../tilesets/walls.tsx" />
 <tileset firstgid="354" source="../tilesets/windows.tsx" />
 <tileset firstgid="365" source="../tilesets/doors.tsx" />
 <layer id="1" name="Floor" width="13" height="16">
  <data encoding="csv">
0,0,0,0,339,339,339,339,339,0,0,0,0,
0,0,0,0,339,339,339,339,339,0,0,0,0,
0,0,0,0,339,339,339,339,339,0,0,0,0,
0,0,0,0,339,339,339,339,339,0,0,0,0,
0,0,0,0,339,339,339,339,339,0,0,0,0,
0,0,0,0,339,339,339,339,339,0,0,0,0,
0,0,0,0,339,339,339,339,339,0,0,0,0,
0,0,0,0,339,339,339,339,339,0,0,0,0,
339,339,339,339,339,339,339,339,339,339,339,339,339,
339,339,339,339,339,339,339,339,339,339,339,339,339,
339,339,339,339,339,339,339,339,339,339,339,339,339,
339,339,339,339,339,339,339,339,339,339,339,339,339,
339,339,339,339,339,339,339,339,339,339,339,339,339,
339,339,339,339,339,339,339,339,339,339,339,339,339,
339,339,339,339,339,339,339,339,339,339,339,339,339,
0,0,0,0,0,0,0,0,0,0,0,0,0
</data>
 </layer>
 <layer id="2" name="Carpet" width="13" height="16">
  <data encoding="csv">
0,0,0,0,0,0,0,0,0,0,0,0,0,
0,0,0,0,0,0,0,0,0,0,0,0,0,
0,0,0,0,0,0,0,0,0,0,0,0,0,
0,0,0,0,0,0,0,0,0,0,0,0,0,
0,0,0,0,0,0,0,0,0,0,0,0,0,
0,0,0,0,0,0,0,0,0,0,0,0,0,
0,0,0,0,0,0,0,0,0,0,0,0,0,
0,0,0,0,0,0,0,0,0,0,0,0,0,
0,0,0,0,0,0,0,0,0,0,0,0,0,
0,0,0,0,0,0,144,140,140,140,0,0,0,
0,0,0,0,0,0,141,132,132,132,135,0,0,
0,0,0,0,0,0,141,132,132,132,135,0,0,
0,0,0,0,0,0,141,132,132,132,135,0,0,
0,0,0,0,0,0,143,134,134,134,145,0,175,
0,0,0,0,0,0,0,0,0,0,0,0,0,
0,0,0,0,0,0,0,0,0,0,0,0,0
</data>
 </layer>
 <layer id="3" name="Walls" width="13" height="16">
  <data encoding="csv">
0,0,0,0,348,348,348,348,348,0,0,0,0,
0,0,0,0,348,0,0,0,0,0,0,0,0,
0,0,0,0,348,0,0,0,0,0,0,0,0,
0,0,0,0,348,0,0,0,0,0,0,0,0,
0,0,0,0,348,0,0,0,0,0,0,0,0,
0,0,0,0,348,0,0,0,0,0,0,0,0,
0,0,0,0,348,0,0,0,0,0,0,0,0,
0,0,0,0,348,0,0,0,0,0,0,0,0,
348,348,348,348,348,0,0,0,0,348,348,348,348,
348,0,0,0,0,0,0,0,0,0,0,0,0,
348,0,0,0,0,0,0,0,0,0,0,0,0,
348,0,0,0,0,0,0,0,0,0,0,0,0,
348,0,0,0,0,0,0,0,0,0,0,0,0,
348,0,0,0,0,0,0,0,0,0,0,0,0,
348,0,0,0,0,0,0,0,0,0,0,0,0,
0,0,0,0,0,0,0,0,0,0,0,0,0
</data>
 </layer>
 <layer id="4" name="Furniture" width="13" height="16">
  <data encoding="csv">
0,0,0,0,0,2147484003,2147484003,0,0,0,0,0,0,
0,0,0,0,0,111,0,0,2147483901,0,0,0,0,
0,0,0,0,0,285,2147483982,2147483982,0,0,0,0,0,
0,0,0,0,0,285,0,0,0,0,0,0,0,
0,0,0,0,0,190,0,298,0,0,0,0,0,
0,0,0,0,0,303,0,0,0,0,0,0,0,
0,0,0,0,0,285,0,0,0,0,0,0,0,
0,0,0,0,0,285,0,298,0,0,0,0,0,
0,0,0,0,0,285,0,0,0,0,0,0,0,
0,283,2147483933,2147483933,2147483933,0,0,0,0,0,0,281,285,
0,285,0,0,0,0,0,0,0,0,0,281,285,
0,303,0,2147483938,212,0,0,0,0,0,0,281,285,
0,200,0,2147483865,2147483866,0,0,0,0,0,0,105,0,
0,253,0,0,0,0,0,0,0,0,0,0,0,
0,0,0,0,0,0,0,0,0,0,0,0,0,
0,0,0,0,0,2147483901,0,0,0,0,0,0,0
</data>
 </layer>
 <layer id="5" name="Props" width="13" height="16">
  <data encoding="csv">
0,0,0,0,0,0,0,0,0,0,0,0,0,
0,0,0,0,0,0,0,0,0,0,0,0,0,
0,0,0,0,0,0,0,0,0,0,0,0,0,
0,0,0,0,0,0,0,0,0,0,0,0,0,
0,0,0,0,0,0,0,0,0,0,0,0,0,
0,0,0,0,0,0,0,100,0,0,0,0,0,
0,0,0,0,0,0,0,0,0,0,0,0,0,
0,0,0,0,0,0,0,0,0,0,0,0,0,
0,0,0,0,0,0,0,100,0,0,0,0,0,
0,0,0,0,0,2147483841,0,0,0,0,0,0,0,
0,0,0,0,0,0,0,0,0,0,0,0,0,
0,0,0,0,0,0,0,0,0,0,0,0,0,
0,188,0,0,0,0,0,0,0,0,0,0,0,
0,0,0,0,0,0,0,0,0,0,0,0,0,
0,0,0,0,0,0,0,0,0,0,0,0,0,
0,0,0,0,0,0,0,0,0,0,0,0,0
</data>
 </layer>
 <objectgroup id="6" name="Decoration">
  <object id="1" gid="99" x="188.33299999999997" y="753.667" width="148" height="277" />
 </objectgroup>
 <objectgroup id="7" name="Objects">
  <object id="2" name="hall" type="door" x="512" y="64" width="64" height="64" />
  <object id="3" name="hall" type="spawn" x="544.0" y="160.0">
   <point />
  </object>
  <object id="4" name="study" type="door" x="64" y="832" width="64" height="64" />
  <object id="5" name="study" type="spawn" x="160.0" y="864.0">
   <point />
  </object>
  <object id="6" name="dining_hall" type="door" x="320" y="896" width="64" height="64" />
  <object id="7" name="dining_hall" type="spawn" x="352.0" y="864.0">
   <point />
  </object>
  <object id="8" name="chest" type="interactable" x="320" y="64" width="64" height="64">
   <properties>
    <property name="radius" type="float" value="110.0" />
   </properties>
  </object>
  <object id="9" name="librarian" type="npc" x="416.0" y="160.0">
   <polyline points="0,0 0,704" />
  </object>
 </objectgroup>
</map>