<?xml version='1.0' encoding='UTF-8'?>
<map version="1.9" tiledversion="1.9.2" orientation="isometric" renderorder="right-down" width="7" height="15" tilewidth="128" tileheight="64" infinite="0" nextlayerid="8" nextobjectid="5">
 <tileset firstgid="1" source="../tilesets/village_interiors.tsx" />
 <tileset firstgid="337" source="../tilesets/floors.tsx" />
 <tileset firstgid="346" source="../tilesets/walls.tsx" />
 <tileset firstgid="354" source="../tilesets/windows.tsx" />
 <tileset firstgid="365" source="../tilesets/doors.tsx" />
 <layer id="1" name="Floor" width="7" height="15">
  <data encoding="csv">
339,339,339,339,339,339,0,
339,339,339,339,339,339,0,
339,339,339,339,339,339,0,
339,339,339,339,339,339,0,
339,339,339,339,339,339,0,
339,339,339,339,339,339,0,
339,339,339,339,339,339,0,
339,339,339,339,339,339,0,
339,339,339,339,339,339,0,
339,339,339,339,339,339,0,
339,339,339,339,339,339,0,
339,339,339,339,339,339,0,
339,339,339,339,339,339,0,
339,339,339,339,339,339,0,
339,339,339,339,339,339,0
</data>
 </layer>
 <layer id="2" name="Carpet" width="7" height="15">
  <data encoding="csv">
0,0,0,0,0,0,0,
0,0,186,182,184,0,0,
0,0,183,174,177,0,0,
0,0,183,174,177,0,0,
0,0,185,176,187,0,0,
0,0,0,0,0,0,0,
0,0,0,0,0,0,0,
0,0,123,124,0,0,0,
0,0,127,121,0,0,0,
0,0,125,122,175,0,0,
0,0,0,0,0,0,0,
0,0,172,170,0,0,0,
0,0,171,173,0,0,0,
0,0,0,0,147,0,0,
0,0,0,0,0,0,0
</data>
 </layer>
 <layer id="3" name="Walls" width="7" height="15">
  <data encoding="csv">
348,348,348,348,348,348,0,
348,0,0,0,0,0,0,
348,0,0,0,0,0,0,
348,0,0,0,0,0,0,
348,0,0,0,0,0,0,
348,0,0,0,0,0,0,
348,0,0,0,0,0,0,
348,0,0,0,0,0,0,
348,0,0,0,0,0,0,
348,0,0,0,0,0,0,
348,0,0,0,0,0,0,
348,0,0,0,0,0,0,
348,0,0,0,0,0,0,
348,0,0,0,0,0,0,
348,0,0,0,0,0,0
</data>
 </layer>
 <layer id="4" name="Furniture" width="7" height="15">
  <data encoding="csv">
0,0,2147484003,2147484003,0,0,0,
0,303,0,298,0,2147483945,0,
0,296,2147483860,2147483982,2147483982,2147483945,0,
0,0,0,0,0,2147483945,0,
0,303,0,297,0,2147483945,0,
0,285,0,0,0,0,0,
0,0,0,0,0,0,0,
0,285,0,0,0,0,0,
0,0,0,0,0,0,0,
0,0,0,0,0,0,0,
0,0,0,0,0,0,0,
0,0,0,0,0,0,0,
0,0,0,0,0,0,0,
0,0,0,0,0,0,253,
0,0,0,0,0,0,0
</data>
 </layer>
 <layer id="5" name="Props" width="7" height="15">
  <data encoding="csv">
0,0,0,0,0,0,0,
0,0,0,0,0,0,0,
299,0,0,0,0,0,0,
0,0,101,0,0,0,0,
0,0,0,0,0,0,0,
0,0,0,0,0,0,0,
0,0,0,0,0,0,0,
0,0,0,0,0,0,0,
0,0,0,0,0,0,0,
0,0,0,0,0,0,0,
0,0,0,0,0,0,0,
0,0,0,0,0,0,0,
0,0,0,0,0,0,0,
0,0,0,0,0,0,0,
0,0,0,0,0,0,0
</data>
 </layer>
 <objectgroup id="6" name="Decoration">
  <object id="1" gid="193" x="154.0" y="210.0" width="148" height="164" />
 </objectgroup>
 <objectgroup id="7" name="Objects">
  <object id="2" name="library" type="door" x="320" y="832" width="64" height="64" />
  <object id="3" name="library" type="spawn" x="288.0" y="864.0">
   <point />
  </object>
  <object id="4" name="magister" type="npc" x="160.0" y="352.0">
   <point />
  </object>
 </objectgroup>
</map>